X: 139
T: No_64_The_Ravens_Are_Singing.krn
%%abc-version 2.0
%%abcx-abcm2ps-target-version 5.9.1 (29 Sep 2008)
%%abc-creator hum2abc beta
%%abcx-conversion-date 2020/08/10 18:54:57
%%gracespace 0 6 6
%%humdrum-veritas 3490226026
%%humdrum-veritas-data 2372731657
%%linebreak <none>
%%barnumbers 0
L: 1/8
M: 2/4
%%staves {1 2}
V: 1 clef=bass
V: 2 clef=bass
K: B
[V:1] [K:clef=bass][M:2/4]D<D B,/B,3/ | 
[V:2] [K:clef=bass][M:2/4](3!accent!G,, z G,, (3!accent!G,, z G,, | 
[V:1] D4 | 
[V:2] (3!accent!G,, z G,, (3!accent!G,, z G,, | 
[V:1] C<B, G,/G,3/ | 
[V:2] z4 | 
[V:1] G,4 | 
[V:2] z4 | 
[V:1] G,<G, F,/F,3/ | 
[V:2] z4 | 
[V:1] G,4 ||  
[V:2] z4 ||  
[V:1] [M:3/4]G,<G,- G,G, G,G, ||  
[V:2] [M:3/4]z6 ||  
[V:1] [M:2/4]A,4 | 
[V:2] [M:2/4]z4 | 
[V:1] A,<A, G,/G,3/ | 
[V:2] z4 | 
[V:1] G,4 | 
[V:2] z4 | 
[V:1] (3G,-G,D, D,/D,3/ | 
[V:2] z4 | 
[V:1] G,4 | 
[V:2] z4 | 
[V:1] G,<G, D,/D,3/ | 
[V:2] z4 | 
[V:1] D,4 | 
[V:2] z4 | 
[V:1] D,<C, B,,/B,,3/ | 
[V:2] z4 | 
[V:1] D,4 | 
[V:2] z4 | 
[V:1] D,<C, B,,/B,,3/ | 
[V:2] z4 | 
[V:1] (3B,,A,,G,,G,,2 | 
[V:2] z4 | 
[V:1] G,,7/G,,/ | 
[V:2] z4 | 
[V:1] G,,4 |]  
[V:2] z4 |]  


